X:1
T:Dunque il giorno inchiniamo
T:Lodovico Agostini
T:Dunque il giorno inchiniamo
T:Canzone Sesta parte
C:Lodovico Agostini
%%score [ 1 2 3 4 ]
L:1/8
Q:1/4=100
M:4/4
K:C
V:1 treble nm="Soprano" snm="S"
V:2 alto1 nm="Alto" snm="A"
V:3 alto nm="Tenor" snm="T"
V:4 bass3 nm="Bass" snm="B"
V:1
 z8 |[K:Bb] B8 | B4 _A4 | G2 G2 F4 | =E4 z2 c2 | =B2 c2 d3 d | d2 c2 B2 B2 | B4 B4 | z2 c2 c3 c | %9
w: |Dun-|que il gior-|no in- chi- nia-|mo, Che'n|ha la fiam- ma et|bel- la e sa- na-|re- sa,|Can- tia- mo et|
 c2 e2 d4 | e2 d2 f3 f | f2 =e2 f3 f | d2 d2 c4 | d4 z4 | B4 B2 G2 | _A4 G2 c2- | c2 c2 B3 B | %17
w: si can- tia-|mo, Che da cis-|cun sia no- stra|gio- ia'n- te-|sa,|O- gni degn'|al- ma ac- ce-|* sa d'a- mo-|
 A2 G2 c4 | =B2 c2 c3 c | d2 B2 B2 A2 | B4 z4 | B4 B2 B2 | c2 c2 d4 | c2 c2 c3 c | c2 d2 d2 e2 | %25
w: ro- so fo-|co, Tor- ni ai pia-|cer u- sa- *|ti,|Val- li, cam-|pagn' et pra-|ti, Fio- ri- sca-|no e gl'au- gel- li in|
[M:3/4][Q:1/4=150] c4 c2 | B4 A2 | =B3 B B2 | c4 d2 |[M:4/4][Q:1/4=100] c4 d2 e2- | ee e2 d2 c2 | %31
w: fes- ta en|gio- co,|Hor scher- zand'|hor can-|tan- do, Ven-|* ga- no al no- stro|
 B3 A G2 F2 | F8 | F8 |] %34
w: gau- dio ac- com- pa-|gnan-|do.|
V:2
 z8 |[K:Bb][K:treble] G8 | F4 F4 | D2 C2 C4 | C4 z2 G2 | G2 G2 B3 B | B2 A2 G2 G2 | F4 G4 | %8
w: |Dun-|que il gior-|no in- chi- nia-|mo, Che'n|ha la fiam- ma et|bel- la e sa- na-|re- sa,|
 z2 _A2 A3 A | _A2 G2 B4 | B2 B2 A3 A | A2 G2 A3 A | B2 B2 B2 A2 | B4 z4 | G4 G2 D2 | F4 =E2 G2- | %16
w: Can- tia- mo et|si can- tia-|mo, Che da cis-|cun sia no- stra|gio- ia'n- te- *|sa,|O- gni degn'|al- ma ac- ce-|
 G2 G2 G3 G | A2 B2 EDEF | G2 A2 A2 AA | D2 =E2 F4 | F4 z4 | G4 G2 G2 | _A2 A2 B4 | A2 G2 G3 G | %24
w: * sa d'a- mo-|ro- so fo- * * *|co, Tor- ni ai _ pia-|cer u- sa-|ti,|Val- li, cam-|pagn' et pra-|ti, Fio- ri- sca-|
 A2 B2 B2 B2 |[M:3/4] _A4 G2 | G4 ^F2 | G3 G G2 | G4 B2 |[M:4/4] A4 B2 B2- | BB B2 B2 A2 | %31
w: no e gl'au- gel- li in|fes- ta en|gio- co,|Hor scher- zand'|hor can-|tan- do, Ven-|* ga- no al no- stro|
 G3 F E2 D2 | C8 | D8 |] %34
w: gau- dio ac- com- pa-|gnan-|do.|
V:3
 z8 |[K:Bb][K:treble-8] e8 | d4 c4 | B2 G2 _A4 | G4 z2 e2 | d2 e2 f3 f | f2 f2 d2 e2 | e2 d2 e4 | %8
w: |Dun-|que il gior-|no in- chi- nia-|mo, Che'n|ha la fiam- ma et|bel- la e sa- na-|re- * sa,|
 z2 e2 e3 e | f2 e2 f4 | g2 g2 c3 c | c2 c2 c3 c | B2 f2 f4 | f4 z4 | e4 e2 B2 | c4 c2 e2- | %16
w: Can- tia- mo et|si can- tia-|mo, Che da cis-|cun sia no- stra|gio- ia'n- te-|sa,|O- gni degn'|al- ma ac- ce-|
 e2 e2 d3 d | d2 d2 c4 | d2 f2 f3 f | f2 B2 c4 | d4 z4 | e4 e2 e2 | e2 f2 f4 | f2 =e2 e3 e | %24
w: * sa d'a- mo-|ro- so fo-|co, Tor- ni ai pia-|cer u- sa-|ti,|Val- li, cam-|pagn' et pra-|ti, Fio- ri- sca-|
 f2 f2 f2 g2 |[M:3/4] f4 e2 | d4 d2 | d3 d d2 | e4 f2 |[M:4/4] f4 f2 g2- | gg g2 f2 f2 | %31
w: no e gl'au- gel- li in|fes- ta en|gio- co,|Hor scher- zand'|hor can-|tan- do, Ven-|* ga- no al no- stro|
 d3 d B2 B2 | B2 AG A4 | B8 |] %34
w: gau- dio ac- com- pa-|gnan- * * *|do.|
V:4
 z8 |[K:Bb][K:bass] E,8 | B,,4 F,4 | G,2 =E,2 F,4 | C,4 z2 C,2 | G,2 C2 B,3 B, | B,2 F,2 G,2 E,2 | %7
w: |Dun-|que il gior-|no in- chi- nia-|mo, Che'n|ha la fiam- ma et|bel- la e sa- na-|
 B,4 E,4 | z2 _A,2 A,3 A, | F,2 C2 B,4 | E,2 G,2 F,3 F, | F,2 C,2 F,3 F, | G,2 B,2 F,4 | B,,4 z4 | %14
w: re- sa,|Can- tia- mo et|si can- tia-|mo, Che da cis-|cun sia no- stra|gio- ia'n- te-|sa,|
 E,4 E,2 G,2 | F,4 C,2 C2- | C2 C2 G,3 G, | ^F,2 G,2 _A,4 | G,2 F,2 F,3 F, | B,2 G,2 F,4 | %20
w: O- gni degn'|al- ma ac- ce-|* sa d'a- mo-|ro- so fo-|co, Tor- ni ai pia-|cer u- sa-|
 B,,4 z4 | E,4 E,2 E,2 | _A,2 F,2 B,4 | F,2 C2 C3 C | F,2 B,2 B,2 E,2 |[M:3/4] F,4 C,2 | G,4 D,2 | %27
w: ti,|Val- li, cam-|pagn' et pra-|ti, Fio- ri- sca-|no e gl'au- gel- li in|fes- ta en|gio- co,|
 G,3 G, G,2 | C,4 B,,2 |[M:4/4] F,4 B,,2 E,2- | E,E, E,2 B,2 F,2 | G,3 D, E,2 B,,2 | F,8 | B,,8 |] %34
w: Hor scher- zand'|hor can-|tan- do, Ven-|* ga- no al no- stro|gau- dio ac- com- pa-|gnan-|do.|

